!!!COM: Schubert, Franz Peter
!!!CDT: 1797-1828
!!!OTL: An die Laute
!!!OPS: Opus 81
!!!ONM: No. 2
!!!SCT: DV 905
!!!YOR: Franz Schubert: Selected songs
!!!PPE: Max Friedlaender
!!!PSR: C.F. Peters 
!!!PSP: Frankfurt, London, New York
!!!PSD: n.d.
!!!PPG: pp.20-21
!!!ODT: 1827///
!!!ONB: Leading and trailing bars of rest have been deleted.
**kern
*M6/8
*MM[Etwas geschwind]
*D:
*k[f#c#]
=1
2.r
=2
4a
8a
8.a
16b
8a
=3
4a
8dd
4ff#
8dd
=4
4f#
8f#
8.f#
16g
8f#
=5
4f#
8b
4dd
8b
=6
4g#
8g#
(8a
8g#)
8a
=7
[4.cc#
8cc#]
8d
8g#
=8
4a
8r
4.r
=9
2.r
=10
4b
8b
8.b
16ccn
8b
=11
4dd
8ccn
4b
8a
=12
4b
8b
(8.b
16ccn)
8b
=13
4dd
8ccn
4b
8a
=14
4b
8b
8b
8ee
8dd
=15
8.cc#
16b
8cc#
4.dd
=16
8cc#
8b
8b
8.dd
16b
16b
16g
=17
4e
8a
4d
8r
=18
2.r
=19
4a
8a
8.a
16b
8a
=20
4a
8dd
4ff#
8dd
=21
4f#
8f#
8.f#
16g
8f#
=22
4f#
8b
4dd
8b
=23
4g#
8g#
(8a
8g#)
8a
=24
[4.cc#
8cc#]
8d
8g#
=25
4a
8r
4.r
=26
2.r
=27
4b
8b
8.b
16ccn
8b
=28
4dd
8ccn
4b
8a
=29
4b
8b
(8.b
16ccn)
8b
=30
4dd
8ccn
4b
8a
=31
4b
8b
8b
8ee
8dd
=32
8.cc#
16b
8cc#
4.dd
=33
8cc#
8b
8b
8.dd
16b
16b
16g
=34
4e
8a
4d
8r
==
*-
!!!ENC: David Huron
!!!EMD: Paul von Hippel updated this file in the following ways (1998/9/2,21-22/):
!!!EMD:  (1) changed the representation of slurs from curly braces to parentheses 
!!!EMD:  (2) changed freeform comments into reference records and tandem interpretations
!!!EMD:  (3) changed final barline from quadruple (====) to double (==)
!!!EMD:  (4) added key signatures, key designations, and tempi
!!!EEV: Version 2.0
